X:1
T:Be Strong in the Faith
T:Be Strong in the Faith
T:David  L. Bledsoe
T:David L. Bledsoe, 1900
T:Public Domain Courtesy of the Cyber Hymnal™
T:Public Domain Courtesy of the Cyber Hymnal™
C:David  L. Bledsoe
Z:Public Domain
Z:Courtesy of the Cyber Hymnal™
%%score ( 1 2 ) ( 3 4 )
L:1/8
Q:1/4=102
M:4/4
K:Ab
V:1 treble 
V:2 treble 
V:3 bass 
V:4 bass 
V:1
 [CE]2 | [CE]2 [CE][CE] [DF]2 [CE]2 | [CE]2 [CA]4 [CA]2 | [Ec]2 [Ec][Ec] [EB]2 [=DA]2 | %4
w: 1.~Be|strong in the faith, my|bro- ther, Be|strong in the faith of|
w: 2.~Be|strong in the faith, my|bro- ther, Be|strong in the power of|
w: 3.~Be|strong in the faith, my|bro- ther, Be|strong in the love of|
 [EB]6 [Ec][Ed] | [Ae][Ae][EA][EA] [Ec]2 [CE][CE] | [DF][EG][FA][DF] [CE]2 [CE]2 | %7
w: God; He will|keep you day by day In the|straight and nar- row way, Be|
w: God; Tho’ the|way be dark and steep, He your|soul will safe- ly keep, Be|
w: God; On the|cross the Sav- ior died, And the|law is sa- tis- fied, Be|
 ([DF][EG]) [FA]>[FB] [Ec]2 [DB]2 | [CA]6 ||"^Refrain" [CE]2 | [CE]6 [DF]>[CE] | [CA]6 [CA]2 | %12
w: strong * in the faith of|God.|Be|strong in the|faith, Be|
w: strong * in the power of|God.|Be|strong in the|power, Be|
w: strong * in the love of|God.|Be|strong in the|love, Be|
 [Ec]2 [Ec][Ec] [EB]2 [=DA]2 | !fermata!e6 !fermata![Ec][Ed] | [Ae][Ae][EA][EA] [Ec]2 [CE][CE] | %15
w: strong in the faith of|God. He will|keep you day by day In the|
w: strong in the power of|God. Tho’ the|way be dark and steep, He your|
w: strong in the love of|God. On the|cross the Sav- ior died, And the|
 [DF][EG][FA][DF] [CE]2 [CE]2 | ([DF][EG]) [FA]>[FB] [Ec]2 [DB]2 | [CA]6 |] %18
w: straight and nar- row way, Be|strong * in the faith of|God.|
w: soul will safe- ly keep, Be|strong * in the power of|God.|
w: law is sa- tis- fied, Be|strong * in the love of|God.|
V:2
 x2 | x8 | x8 | x8 | x8 | x8 | x8 | x8 | x6 || x2 | x8 | x8 | x8 | (E2 F2 G2) x2 | x8 | x8 | x8 | %17
 x6 |] %18
V:3
 [A,,A,]2 | [A,,A,]2 [A,,A,][A,,A,] [A,,A,]2 [A,,A,]2 | [A,,A,]2 [A,,E,]4 [A,,A,]2 | %3
 A,2 A,A, [G,B,]2 [F,B,]2 | [E,G,]6 A,[A,B,] | [A,C][A,C][A,C][A,C] A,2 [A,,A,][A,,A,] | %6
 [D,A,][D,A,][D,A,][D,A,] [A,,A,]2 [A,,A,]2 | [D,A,]2 [D,A,]>[D,A,] [E,A,]2 [E,G,]2 | [A,,A,]6 || %9
 z2 | z2 [A,,A,]>[A,,A,] [A,,A,]2 z2 | z2 [A,,E,]2 [A,,E,]2 [A,,A,]2 | A,2 A,A, [G,B,]2 [F,B,]2 | %13
 (!fermata!G,2 A,2 !fermata!B,2) A,[A,B,] | [A,C][A,C][A,C][A,C] A,2 [A,,A,][A,,A,] | %15
 [D,A,][D,A,][D,A,][D,A,] [A,,A,]2 [A,,A,]2 | [D,A,]2 [D,A,]>[D,A,] [E,A,]2 [E,G,]2 | [A,,A,]6 |] %18
V:4
 x2 | x8 | x8 | A,2 A,A, x4 | x6 A, x | x4 A,2 x2 | x8 | x8 | x6 || x2 | x8 | x8 | A,2 A,A, x4 | %13
 E,6 A, x | x4 A,2 x2 | x8 | x8 | x6 |] %18

